Obsidian-SemiLight/actions/22s/help-whatsthis.svg

<svg viewBox="0 0 22 22" xmlns="http://www.w3.org/2000/svg"><path d="m11 3c-4.432 0-8 3.568-8 8s3.568 8 8 8c.339463 0 .67189-.027711 1-.068359v-1.009766c-.327502.046612-.659216.078125-1 .078125-3.878 0-7-3.122-7-7s3.122-7 7-7 7 3.122 7 7c0 .696167-.105435 1.366247-.292969 2h1.033203c.163714-.639651.259766-1.307916.259766-2 0-4.432-3.568-8-8-8zm-1 3v2h2v-2zm0 3v7h2v-7zm3 2 .003906 9.099609 2.726563-3.289062 4.269531-.210938z" fill="#4d4d4d"/></svg>

<svg xmlns="http://www.w3.org/2000/svg" viewBox="0 0 22 22">
  <defs id="defs3051">
    <style type="text/css" id="current-color-scheme">
      .ColorScheme-Text {
        color:#4d4d4d;
      }
      </style>
  </defs>
 <path 
     style="fill:currentColor;fill-opacity:1;stroke:none" 
     d="M 11 3 C 6.568 3 3 6.568 3 11 C 3 15.432 6.568 19 11 19 C 11.339463 19 11.67189 18.972289 12 18.931641 L 12 17.921875 C 11.672498 17.968487 11.340784 18 11 18 C 7.122 18 4 14.878 4 11 C 4 7.122 7.122 4 11 4 C 14.878 4 18 7.122 18 11 C 18 11.696167 17.894565 12.366247 17.707031 13 L 18.740234 13 C 18.903948 12.360349 19 11.692084 19 11 C 19 6.568 15.432 3 11 3 z M 10 6 L 10 8 L 12 8 L 12 6 L 10 6 z M 10 9 L 10 16 L 12 16 L 12 9 L 10 9 z M 13 11 L 13.003906 20.099609 L 15.730469 16.810547 L 20 16.599609 L 13 11 z "
     class="ColorScheme-Text"
     />
</svg>
